X:277
T:The Castle
R:jig
M:6/8
L:1/8
K:Ador
|:~c3 BAG|AGE DB,G,|~A,3 EDB,|DEG AGE|
cBA BAG|AGE DB,G,|A,2 E EDE|DB,G, A,2 B:|
|:cBA ~a3|bag edB|GBd ~g3|GBd cBA|
cBc dcd|ede gab|age dBG|EFG A2 B:|

